packages/icons/svg/Fill/tv.svg

<svg width="24" height="24" viewBox="0 0 24 24" fill="none" xmlns="http://www.w3.org/2000/svg">
<g id="Icon/Fill/tv">
<path id="Mask" fill-rule="evenodd" clip-rule="evenodd" d="M19 18.9999C19 19.5529 18.553 19.9999 18 19.9999H6C5.447 19.9999 5 19.5529 5 18.9999V11.9999C5 11.4469 5.447 10.9999 6 10.9999H18C18.553 10.9999 19 11.4469 19 11.9999V18.9999ZM18 5.99991H14.414L16.707 3.70691C17.098 3.31591 17.098 2.68391 16.707 2.29291C16.316 1.90191 15.684 1.90191 15.293 2.29291L12 5.58591L8.707 2.29291C8.316 1.90191 7.684 1.90191 7.293 2.29291C6.902 2.68391 6.902 3.31591 7.293 3.70691L9.586 5.99991H6C4.346 5.99991 3 7.34591 3 8.99991V18.9999C3 20.6539 4.346 21.9999 6 21.9999H18C19.654 21.9999 21 20.6539 21 18.9999V8.99991C21 7.34591 19.654 5.99991 18 5.99991Z" fill="#000000"/>
</g>
</svg>

<svg fill="none" height="24" viewBox="0 0 24 24" width="24" xmlns="http://www.w3.org/2000/svg"><path clip-rule="evenodd" d="m19 18.9998c0 .553-.447 1-1 1h-11.99998c-.553 0-1-.447-1-1v-7c0-.553.447-1 1-1h11.99998c.553 0 1 .447 1 1zm-1-13.00004h-3.586l2.293-2.293c.391-.391.391-1.023 0-1.414s-1.023-.391-1.414 0l-3.293 3.293-3.293-3.293c-.391-.391-1.023-.391-1.414 0s-.391 1.023 0 1.414l2.293 2.293h-3.586c-1.654 0-3 1.346-3 3v10.00004c0 1.654 1.346 3 3 3h12c1.654 0 3-1.346 3-3v-10.00004c0-1.654-1.346-3-3-3z" fill="#6b7280" fill-rule="evenodd"/></svg>
